!!!OTL: Der geistliche Buchsbaum. / b. Bessere Lesart, im boehm. Bruedergsb. 1566, Anh. Bl. 47.
!!!ARE: Europa, Mitteleuropa, Deutschland
!!!SCT: A0654B
!!!TXL: @@DE
!!!YEM: Copyright 1995, estate of Helmut Schaffrath.
**kern	**text
*M3/1	*
*met(C3)	*
*clefC4	*
*k[]	*
*G:	*
=1	=1
1ryy	.
1ryy	.
{1G	Nu
=2	=2
0G	hö-
1G	-ret
=3	=3
0A	ʒu
1B	jr
=4	=4
0c	Chriſten
1c	.
=5	=5
0A}	Leut,
{1B	wie
=6	=6
0c	Leib
1c	vnd
=7	=7
0B	Seel
1G	gen
=8	=8
0A	an-
1A	-der
=9	=9
0A}	ſtreit,
{1A	wol
=10	=10
0G	hie
1G	auff
=11	=11
0G	erd
1E	in
=12	=12
!LO:SIC:o:0f:v	!
0F#	die-
1G	-ſer
=13	=13
0A}	ʒeit
{1B	habn
=14	=14
0c	ſie
1B	ein
=15	=15
0A	ſte-
1G	-tigs
=16	=16
0.A	krie-
=17	=17
0G}	-gen,
{1B	keins
=18	=18
0c	mag
1c	vom
=19	=19
0B	an-
1c	-dern
=20	=20
0.A	flie-
=21	=21
0.G/ll}	-gen.
==	==
!!!GTL: Geistliche Volkslieder
!!!AGN: Romanze, Ballade, Lied, religioeses Lied
!! Boehm. Bruedergsgb. 1566 Anh. Bl. 47
!!!ONB: ESAC (Essen Associative Code) Database: ALTDEU
!!!AMT: simple triple
!!!AIN: vox
!!!EED: Helmut Schaffrath
!!!EEV: 1.0
!!!RDF**kern: l = terminal long
!!!URL-scan: https://rosdok.uni-rostock.de/mcrviewer/recordIdentifier/rosdok_ppn738218359/iview2/phys_0834.iview2?x=-495.6391625615763&y=511.0793103277683&scale=0.4629418472063854&rotation=0&layout=singlePageLayout
!!!ENC: Anna Maria Matuszewska
!!!EEV: 2024/26/03
*-	*-
